img/pass-icon.svg

<svg xmlns="http://www.w3.org/2000/svg" width="24" height="24" viewBox="0 0 24 24" fill="none">
	<path fill-rule="evenodd" clip-rule="evenodd" d="M5.3748 7.8861C5.3748 4.30981 8.2163 1.40039 11.7748 1.40039C13.9884 1.40039 15.9305 2.53026 17.0766 4.2446C17.3836 4.70373 17.2602 5.32476 16.8011 5.63171C16.3419 5.93867 15.7209 5.81531 15.414 5.35618C14.6205 4.16939 13.2881 3.40039 11.7748 3.40039C9.37821 3.40039 7.4201 5.3394 7.37558 7.80039H17.3998C18.9569 7.80039 20.1998 9.08587 20.1998 10.629V19.7718C20.1998 21.3149 18.9569 22.6004 17.3998 22.6004H6.5998C5.04273 22.6004 3.7998 21.3149 3.7998 19.7718V10.629C3.7998 9.51525 4.44726 8.53573 5.39297 8.07684C5.38105 8.0151 5.3748 7.95133 5.3748 7.8861ZM6.5998 9.80039C6.17688 9.80039 5.7998 10.1606 5.7998 10.629V19.7718C5.7998 20.2402 6.17688 20.6004 6.5998 20.6004H17.3998C17.8227 20.6004 18.1998 20.2402 18.1998 19.7718V10.629C18.1998 10.1606 17.8227 9.80039 17.3998 9.80039H6.5998ZM11.9998 12.8004C12.5521 12.8004 12.9998 13.2481 12.9998 13.8004V16.2004C12.9998 16.7527 12.5521 17.2004 11.9998 17.2004C11.4475 17.2004 10.9998 16.7527 10.9998 16.2004V13.8004C10.9998 13.2481 11.4475 12.8004 11.9998 12.8004Z" fill="#B47EFF"/>
</svg>

<?xml version="1.0" encoding="utf-8"?>
<!-- Generator: Adobe Illustrator 27.2.0, SVG Export Plug-In . SVG Version: 6.00 Build 0)  -->
<svg version="1.1" id="Layer_1" xmlns="http://www.w3.org/2000/svg" xmlns:xlink="http://www.w3.org/1999/xlink" x="0px" y="0px"
	 viewBox="0 0 24 24" style="enable-background:new 0 0 24 24;" xml:space="preserve">
<style type="text/css">
	.st0{fill-rule:evenodd;clip-rule:evenodd;fill:#FFFFFF;fill-opacity:0.25;}
</style>
<g id="lock-open">
	<path id="Vector" class="st0" d="M5.4,7.9c0-3.6,2.8-6.5,6.4-6.5c2.2,0,4.2,1.1,5.3,2.8c0.3,0.5,0.2,1.1-0.3,1.4
		c-0.5,0.3-1.1,0.2-1.4-0.3c-0.8-1.2-2.1-2-3.6-2c-2.4,0-4.4,1.9-4.4,4.4h10c1.6,0,2.8,1.3,2.8,2.8v9.1c0,1.5-1.2,2.8-2.8,2.8H6.6
		c-1.6,0-2.8-1.3-2.8-2.8v-9.1c0-1.1,0.6-2.1,1.6-2.6C5.4,8,5.4,8,5.4,7.9z M6.6,9.8c-0.4,0-0.8,0.4-0.8,0.8v9.1
		c0,0.5,0.4,0.8,0.8,0.8h10.8c0.4,0,0.8-0.4,0.8-0.8v-9.1c0-0.5-0.4-0.8-0.8-0.8H6.6z M12,12.8c0.6,0,1,0.4,1,1v2.4c0,0.6-0.4,1-1,1
		c-0.6,0-1-0.4-1-1v-2.4C11,13.2,11.4,12.8,12,12.8z"/>
</g>
</svg>
